X:1
T:Title
%%score 1 2 3
L:1/8
M:4/4
K:F
V:1 bass nm="Part_1"
V:2 bass nm="Part_2"
V:3 bass nm="Part_3"
V:1
 G,6 G,2 | G,4 ^F,4 | G,4 _E,<D,E,<C, | D,8 | G,,8 | z8 | z8 | z8 | z2 B,,C, D,B,,D,E, | F,4 F,4 | %10
w: In Te|Do- mi-|ne spe- * * *|ra-|vi||||non con- fun- dar in ac-|ter- num|
 z4 G,4- | G,4 ^F,4 | G,D,E,F, G,E,F,G, | A,G,/F,/E,/D,/C,/B,,/ A,,4 | D,4 z4 | z8 | z8 | z8 | z8 | %19
w: Do-|* mi-|ne in Te spe- ra- vi non co|fun- * * * * * * *|dar|||||
 z4 G,G,E,E, | A,A,^F,F, z2 G,2- | G,2 E,G, A,4- | A,2 B,2 G,4- | G,4 ^F,4 | G,8 | %25
w: in ac- ter- num|non con- fun- dar in|* Te spe- ra-|* vi Do-|* mi-|ne|
 z2 G,A, B,2 B,B, | B,B, B,4 A,G, | F,4 F,2 E,D, | C,2 _E,E, (E,4 | _E,2) D,D, D,4 | G,,8 | z8 | %32
w: in iu- sti- ti- a|tu- a li- be- ra|me li- be- ra|me in iu- sti-|* ti- a tu-|a||
 z8 | z8 | z2 _E,F, G,2 G,G, | G,2 G,2 z4 | z2 G,A, B,2 B,B, | B,2 B,2 z4 | z8 | z2 D,2 E,E, ^F,2 | %40
w: ||in iu- sti- ti- a|tu- a|in iu- sti- ti- a|tu- a||et e- ri- pe|
 G,8 | z8 | z8 | z8 | z8 | z8 | z4 D,E, ^F,2 | G,4 E,F, G,2 | A,4 ^F,G, A,2 | B,4 G,4- | G,4 ^F,4 | %51
w: me||||||Li- be- ra|me Li- be- ra|me Li- be- ra|me Do-|* mi-|
 G,8 ||[M:12/4] G,12 G,4 E,8 | F,8 D,8 G,8 | D,16 C,8 | A,,8 B,,8 C,8 | F,,8 F,,8 z8 | z24 | z24 | %59
w: ne|Spi- ri- tum|me- um co-|men- do|in ma- nus|tu- as|||
 z24 | D,8 D,8 E,8 | F,12 E,4 D,8 | C,8 C,8 z8 | z24 | z24 | z24 | z24 | D,8 E,8 F,8 | %68
w: |co- men- do|spi- ri- tum|me- um|||||co- men- do|
 G,12 A,4 ^F,8 ||[M:4/4] G,4 G,2 D,2 | _E,2 F,2 B,,4 | B,,D,E,F, G,4- | G,2 F,E, A,4- | %73
w: spi- ri- tum|me- um in|ma- nus tu-|as co- men- do spi-|* ri- tum me-|
 A,2 B,2 G,4- | G,4 ^F,4 | G,4 z4 |] %76
w: * um Do-|* mi-|ne|
V:2
 z8 | z8 | z8 | z8 | G,6 G,2 | G,4 ^F,4 | G,4 _E,<D,E,<C, | D,8 | G,,8 | z2 F,,G,, A,,F,,A,,B,, | %10
w: ||||In Te|Do- mi-|ne spe- * * *|ra-|vi|non con- fun- dar in ac-|
 C,4 C,4 | z8 | z8 | z8 | z D,E,F, G,E,F,G, | A,F,G,A, B,B,,D,E, | F,E,/D,/C,/B,,/A,,/G,,/ F,,4 | %17
w: ter- num||||in Te spe- ra- vi non con-|fun- dar in ae- ter- * * *||
 B,,4 G,4- | G,4 ^F,4 | F,4 z2 C,C, | A,,A,, D,D, =B,,B,, z2 | C,6 A,,C, | D,4 _E,4 | C,4 D,4 | %24
w: num Do-|* mi-|ne in ac-|ter- num non con- fun- dar|in Te spe-|ra- vi|Do- mi-|
 G,,8 | z8 | z8 | z8 | z8 | z8 | z4 B,4- | B,4 A,4 | B,2 D,E, F,2 F,F, | F,F, F,4 E,D, | C,4 z4 | %35
w: ne||||||Do-|* mi-|ne in iu- sti- ti- a|tu- a li- be- ra|me|
 z2 C,4 B,,A,, | G,,4 z4 | z2 G,4 F,E, | D,4 D,2 _E,E, | F,2 B,,2 C,C, D,2 | G,,8 | %41
w: Li- be- ra|me|Li- be- ra|me et e- ri-|pe et e- ri- pe|me|
 G,B,A,G, F,3 E, | F,4 z2 _E,D, | C,B,,B,,A,, G,,G,, F,_E, | D,C,C,B,, F,2 F,,2 | %45
w: e- ri- pe me Do- mi-|ne non con-|fun- dar in ac- ter- num in ac-|ter- num non con\-- * fun-|
 B,,B,,C,D, _E,3 F, | D,8 | G,,A,, =B,,2 C,4 | A,,=B,, ^C,2 D,4 | B,,C, D,2 _E,4 | C,4 D,4 | %51
w: dar in Te spe- ra\-- *|vi|Li- be- ra me|Li- be- ra me|Li- be- ra me|Do- mi-|
 G,,8 ||[M:12/4] z24 | z24 | z24 | z24 | F,12 F,4 D,8 | _E,8 C,8 F,8 | B,,16 B,,8 | %59
w: ne|||||Spi- ri- tum|me- um co-|men- do|
 F,,8 G,,8 A,,8 | D,,8 D,,8 z8 | z24 | C,8 C,8 D,8 | _E,12 D,4 C,8 | B,,8 B,,8 D,8 | _E,16 F,8 | %66
w: in ma- nus|tu- as||co- men- do|spi- ri- tum|me- um in|ma- nus|
 B,,16 B,,8 | B,,8 C,8 D,8 | _E,12 C,4 D,8 ||[M:4/4] G,,4 G,,4 | z8 | z4 z G,,A,,B,, | C,6 B,,A,, | %73
w: tu- as|co- men- do|spi- ri- tum|me- um||co- men- do|spi- ri- tum|
 D,4 _E,4 | C,4 D,4 | G,,4 z4 |] %76
w: me- um|Do- mi-|ne|
V:3
 G,6 G,2 | G,4 ^F,4 | G,4 C,4 | D,8 | G,,8 | G,4 ^F,4 | G,4 C,4 | D,8 | G,,8 | F,,8 | C,8 | D,8 | %12
w: ||||||||||||
 G,,8 | A,,8 | D,4 G,,4 | F,,4 B,,4 | F,,8 | B,,6 C,2 | D,8 | G,,6 C,2 | A,,2 D,2 =B,,4 | %21
w: |||||||||
 C,6 A,,C, | D,4 _E,4 | C,4 D,4 | G,,8 | G,,2 G,A, B,4 | B,2 B,4 A,G, | F,4 F,2 E,D, | %28
w: |||||||
 C,2 _E,4 E,2 | D,8 | G,,8 | F,,8 | B,,4 F,4 | F,2 F,4 E,D, | C,8 | C,6 B,,A,, | G,,8 | G,6 F,E, | %38
w: |||||A. Grandi jIGIzi jNr.|||||
 D,4 D,2 _E,2 | F,2 B,,2 C,2 D,2 | G,,8 | G,4 F,4 | F,8 | C,4 G,,4 | D,2 B,,2 F,,4 | B,,4 _E,4 | %46
w: ||||||||
 D,8 | G,,4 C,4 | A,,4 D,4 | B,,4 _E,4 | C,4 D,4 | G,,8 ||[M:12/4] G,16 E,8 | F,8 D,8 G,8 | %54
w: ||||||||
 C,16 C,8 | A,,8 B,,8 C,8 | F,,8 F,8 D,8 | _E,8 C,8 F,8 | B,,16 B,,8 | F,,8 G,,8 A,,8 | %60
w: ||||||
 D,8 D,8 E,8 | F,16 D,8 | C,8 C,8 D,8 | _E,12 D,4 C,8 | B,,8 B,,8 D,8 | _E,16 F,8 | B,,16 B,,8 | %67
w: |||||||
 B,,8 C,8 D,8 | _E,12 C,4 D,8 ||[M:4/4] G,,8 | _E,2 F,2 B,,4 | B,,4- B,,G,,A,,B,, | C,6 B,,A,, | %73
w: ||||* * Grandi jIGIzi *|jNr. * *|
 D,4 _E,4 | C,4 D,4 | G,,4 z4 |] %76
w: |||

